flaticon/sewing/button-2.svg

<svg xmlns="http://www.w3.org/2000/svg" width="32" height="32" viewBox="0 0 24 24">
    <path d="M 12 0 C 5.398438 0 0 5.398438 0 12 C 0 18.601562 5.398438 24 12 24 C 18.601562 24 24 18.601562 24 12 C 24 5.398438 18.601562 0 12 0 Z M 12 23.199219 C 5.839844 23.199219 0.800781 18.160156 0.800781 12 C 0.800781 5.839844 5.839844 0.800781 12 0.800781 C 18.160156 0.800781 23.199219 5.839844 23.199219 12 C 23.199219 18.160156 18.160156 23.199219 12 23.199219 Z M 12 23.199219"/>
    <path d="M 12 3.199219 C 7.160156 3.199219 3.199219 7.160156 3.199219 12 C 3.199219 16.839844 7.160156 20.800781 12 20.800781 C 16.839844 20.800781 20.800781 16.839844 20.800781 12 C 20.800781 7.160156 16.839844 3.199219 12 3.199219 Z M 12 20 C 7.601562 20 4 16.398438 4 12 C 4 7.601562 7.601562 4 12 4 C 16.398438 4 20 7.601562 20 12 C 20 16.398438 16.398438 20 12 20 Z M 12 20"/>
    <path d="M 16.398438 9.601562 C 15.214844 9.601562 14.226562 10.46875 14.035156 11.601562 L 9.964844 11.601562 C 9.773438 10.46875 8.785156 9.601562 7.601562 9.601562 C 6.28125 9.601562 5.199219 10.679688 5.199219 12 C 5.199219 13.320312 6.28125 14.398438 7.601562 14.398438 C 8.785156 14.398438 9.773438 13.53125 9.964844 12.398438 L 14.035156 12.398438 C 14.226562 13.53125 15.214844 14.398438 16.398438 14.398438 C 17.71875 14.398438 18.800781 13.320312 18.800781 12 C 18.800781 10.679688 17.71875 9.601562 16.398438 9.601562 Z M 7.601562 13.601562 C 6.71875 13.601562 6 12.878906 6 12 C 6 11.121094 6.71875 10.398438 7.601562 10.398438 C 8.34375 10.398438 8.96875 10.910156 9.148438 11.601562 L 7.601562 11.601562 C 7.359375 11.601562 7.199219 11.761719 7.199219 12 C 7.199219 12.238281 7.359375 12.398438 7.601562 12.398438 L 9.148438 12.398438 C 8.96875 13.089844 8.34375 13.601562 7.601562 13.601562 Z M 16.398438 13.601562 C 15.65625 13.601562 15.03125 13.089844 14.851562 12.398438 L 16.398438 12.398438 C 16.640625 12.398438 16.800781 12.238281 16.800781 12 C 16.800781 11.761719 16.640625 11.601562 16.398438 11.601562 L 14.851562 11.601562 C 15.03125 10.910156 15.65625 10.398438 16.398438 10.398438 C 17.28125 10.398438 18 11.121094 18 12 C 18 12.878906 17.28125 13.601562 16.398438 13.601562 Z M 16.398438 13.601562"/>
</svg>

<svg xmlns="http://www.w3.org/2000/svg" width="32" height="32" viewBox="0 0 24 24">
    <path d="M12 0C5.398 0 0 5.398 0 12s5.398 12 12 12 12-5.398 12-12S18.602 0 12 0zm0 23.2C5.84 23.2.8 18.16.8 12 .8 5.84 5.84.8 12 .8 18.16.8 23.2 5.84 23.2 12c0 6.16-5.04 11.2-11.2 11.2zm0 0"/>
    <path d="M12 3.2c-4.84 0-8.8 3.96-8.8 8.8 0 4.84 3.96 8.8 8.8 8.8 4.84 0 8.8-3.96 8.8-8.8 0-4.84-3.96-8.8-8.8-8.8zM12 20c-4.398 0-8-3.602-8-8s3.602-8 8-8 8 3.602 8 8-3.602 8-8 8zm0 0"/>
    <path d="M16.398 9.602a2.404 2.404 0 0 0-2.363 2h-4.07a2.404 2.404 0 0 0-2.363-2A2.407 2.407 0 0 0 5.199 12a2.407 2.407 0 0 0 2.403 2.398 2.404 2.404 0 0 0 2.363-2h4.07c.192 1.133 1.18 2 2.363 2A2.407 2.407 0 0 0 18.801 12a2.407 2.407 0 0 0-2.403-2.398zm-8.796 4A1.606 1.606 0 0 1 6 12c0-.879.719-1.602 1.602-1.602.742 0 1.367.512 1.546 1.204H7.602c-.243 0-.403.16-.403.398 0 .238.16.398.403.398h1.546a1.604 1.604 0 0 1-1.546 1.204zm8.796 0a1.604 1.604 0 0 1-1.546-1.204h1.546c.243 0 .403-.16.403-.398 0-.238-.16-.398-.403-.398h-1.546a1.604 1.604 0 0 1 1.546-1.204c.883 0 1.602.723 1.602 1.602 0 .879-.719 1.602-1.602 1.602zm0 0"/>
</svg>
